svg/girl_1525y_negative.svg

<svg width="48" height="48" viewBox="0 0 48 48" fill="none" xmlns="http://www.w3.org/2000/svg">
<path fill-rule="evenodd" clip-rule="evenodd" d="M0 0V47.9994H47.9994V0H0ZM24.3177 4.56044C24.9567 4.56124 25.5707 4.63744 26.1717 4.74604C26.5257 4.80584 26.8757 4.88044 27.2187 4.97064C27.3607 5.00814 27.4987 5.05674 27.6387 5.09954C27.8047 5.15034 27.9716 5.19944 28.1346 5.25773C28.2756 5.30843 28.4136 5.36543 28.5526 5.42183C28.7256 5.49233 28.8966 5.56693 29.0656 5.64643C29.1836 5.70183 29.3006 5.75853 29.4156 5.81833C29.5966 5.91223 29.7736 6.01422 29.9486 6.11902C30.0516 6.18052 30.1546 6.23932 30.2556 6.30462C30.4686 6.44272 30.6746 6.59082 30.8766 6.74602C30.9306 6.78782 30.9886 6.82411 31.0426 6.86711C31.2916 7.06721 31.5296 7.28441 31.7616 7.51161C31.8316 7.58031 31.8966 7.6553 31.9646 7.7265C32.1226 7.8911 32.2776 8.0601 32.4256 8.2382C32.5106 8.3402 32.5916 8.44619 32.6736 8.55259C32.8006 8.71939 32.9236 8.89249 33.0426 9.07019C33.1176 9.18278 33.1936 9.29498 33.2656 9.41198C33.4026 9.63468 33.5316 9.86658 33.6556 10.1049C33.6936 10.1789 33.7366 10.2469 33.7726 10.3219C33.9356 10.6519 34.0846 10.9969 34.2206 11.3569C34.2486 11.4309 34.2696 11.5109 34.2966 11.5859C34.3986 11.8709 34.4926 12.1628 34.5776 12.4668C34.6156 12.6028 34.6506 12.7428 34.6856 12.8828C34.7496 13.1448 34.8086 13.4128 34.8606 13.6878C34.8896 13.8378 34.9166 13.9898 34.9406 14.1448C34.9876 14.4368 35.0256 14.7378 35.0586 15.0448C35.0736 15.1908 35.0906 15.3348 35.1036 15.4838C35.1396 15.9388 35.1666 16.4038 35.1716 16.8888C34.9166 25.5907 37.8775 27.8077 37.1675 30.0486C35.0396 28.7876 33.0456 28.2866 30.7006 28.0896H30.6966C30.5746 28.1796 30.4606 28.2796 30.3316 28.3606C28.0266 29.8046 25.9597 31.1886 24.2887 31.1836C21.8487 31.1076 20.6227 30.0876 17.8518 28.3416C17.7228 28.2606 17.6128 28.1596 17.4938 28.0676C17.4928 28.0686 17.4918 28.0676 17.4898 28.0676C15.9698 28.1836 14.6018 28.4216 13.2558 28.8996C12.9868 28.9956 12.7198 29.1006 12.4508 29.2166C11.9139 29.4486 11.3759 29.7226 10.8279 30.0466C10.1179 27.8057 13.0778 25.5887 12.8218 16.8868C13.0768 7.03401 20.1807 4.45394 23.9977 4.56294V4.56444C24.0117 4.56434 24.0217 4.56394 24.0347 4.56444C24.0637 4.56454 24.0917 4.56804 24.1207 4.56834C24.1867 4.56694 24.2517 4.56044 24.3177 4.56044ZM15.5548 12.1408L15.5468 21.6287C15.5438 24.2877 16.3188 26.7477 18.1778 27.9336C20.8087 29.6116 21.9727 30.5906 24.2887 30.6636C25.8747 30.6686 27.8367 29.3406 30.0246 27.9526C31.9926 26.7047 33.0736 24.2277 33.0736 21.5817C33.0636 20.1067 33.0476 18.6418 33.0366 17.1778C33.0346 17.1758 33.0316 17.1748 33.0286 17.1738C32.7836 17.0158 32.5076 16.8748 32.2026 16.7498C29.7606 15.7458 25.5737 15.6968 21.9957 15.2458C21.1057 15.1338 20.2547 14.9958 19.4768 14.8118C19.4618 14.8088 19.4448 14.8058 19.4298 14.8028H19.4278C19.0918 14.7228 18.7788 14.6278 18.4748 14.5288C18.4178 14.5108 18.3538 14.4978 18.2988 14.4788C18.0058 14.3768 17.7388 14.2578 17.4818 14.1348C17.4318 14.1108 17.3728 14.0928 17.3238 14.0678C17.2098 14.0098 17.1028 13.9468 16.9978 13.8828C16.9648 13.8628 16.9288 13.8448 16.8958 13.8238C16.8048 13.7658 16.7218 13.7018 16.6388 13.6388C16.5998 13.6088 16.5568 13.5808 16.5198 13.5508C16.4038 13.4558 16.2958 13.3568 16.1968 13.2518C16.1178 13.1678 16.0478 13.0788 15.9798 12.9878C15.9618 12.9628 15.9398 12.9398 15.9218 12.9138C15.8408 12.7968 15.7698 12.6748 15.7088 12.5468L15.7068 12.5448C15.6458 12.4158 15.5948 12.2818 15.5548 12.1408ZM20.4797 17.0228C21.0327 17.0238 21.4797 17.4708 21.4797 18.0228C21.4797 18.5758 21.0327 19.0228 20.4797 19.0228C19.9278 19.0228 19.4808 18.5758 19.4798 18.0228C19.4808 17.4708 19.9278 17.0238 20.4797 17.0228ZM27.9896 17.0228C28.5416 17.0238 28.9896 17.4708 28.9896 18.0228C28.9896 18.5758 28.5416 19.0228 27.9896 19.0228C27.4377 19.0228 26.9897 18.5758 26.9897 18.0228C26.9897 17.4708 27.4377 17.0238 27.9896 17.0228ZM24.1717 21.6407C24.1927 21.6397 24.2147 21.6397 24.2357 21.6407C24.7327 21.6407 25.1347 21.7237 25.1367 21.8257C25.1407 21.9287 24.7367 22.0117 24.2357 22.0117C23.7357 22.0117 23.3297 21.9287 23.3337 21.8257C23.3337 21.7287 23.6997 21.6467 24.1717 21.6407ZM23.9387 25.6457H24.1617C25.8997 25.6457 27.3117 25.6977 27.3217 25.7617C27.3417 25.8257 25.9207 25.8787 24.1617 25.8787C22.4037 25.8787 20.9837 25.8257 21.0037 25.7617C21.0087 25.7007 22.2887 25.6507 23.9387 25.6457ZM23.4257 31.1146C23.6977 31.1536 23.9837 31.1776 24.2887 31.1876C24.2797 31.1876 24.2687 31.1906 24.2597 31.1906C23.9667 31.1816 23.6907 31.1556 23.4257 31.1146ZM3.99995 34.0156H43.9974V44.0154H3.99995V34.0156ZM23.0307 35.3456C22.5527 35.3456 22.1237 35.4466 21.7457 35.6516C21.3677 35.8536 21.0757 36.1335 20.8667 36.4915C20.6617 36.8495 20.5607 37.2465 20.5607 37.6795H21.9767C21.9767 37.3205 22.0677 37.0345 22.2497 36.8155C22.4357 36.5945 22.6887 36.4815 23.0077 36.4815C23.3037 36.4815 23.5317 36.5745 23.6907 36.7575C23.8507 36.9365 23.9317 37.1835 23.9317 37.4995C23.9317 37.7305 23.8537 37.9745 23.7007 38.2315C23.5507 38.4895 23.3177 38.7915 23.0017 39.1365L20.7007 41.5875V42.5545H25.5757V41.4175H22.5197L24.1367 39.7125C24.5797 39.2275 24.8917 38.8005 25.0737 38.4375C25.2567 38.0725 25.3477 37.7145 25.3477 37.3625C25.3477 36.7215 25.1427 36.2245 24.7357 35.8725C24.3317 35.5206 23.7637 35.3456 23.0307 35.3456ZM8.60189 35.4336L5.65653 36.4875V37.6365L7.34011 37.1125V42.5545H8.75229V35.4336H8.60189ZM11.6893 35.4426L11.2773 39.0585L12.4022 39.3355L12.5392 39.2085C12.7472 39.0325 13.0182 38.9445 13.3542 38.9445C13.7182 38.9445 14.0012 39.0525 14.1992 39.2675C14.3982 39.4825 14.4982 39.7905 14.4982 40.1945C14.4982 40.6145 14.4112 40.9425 14.2382 41.1735C14.0662 41.4015 13.8192 41.5155 13.5002 41.5155C13.2132 41.5155 12.9822 41.4325 12.8032 41.2695C12.6272 41.1035 12.5232 40.8725 12.4942 40.5755H11.0983C11.1113 40.9795 11.2223 41.3395 11.4343 41.6555C11.6493 41.9715 11.9413 42.2185 12.3092 42.3945C12.6772 42.5665 13.0762 42.6515 13.5062 42.6515C13.9982 42.6515 14.4242 42.5525 14.7852 42.3535C15.1472 42.1525 15.4232 41.8705 15.6152 41.5095C15.8112 41.1445 15.9102 40.7325 15.9102 40.2725C15.9102 39.5175 15.7162 38.9295 15.3322 38.5095C14.9482 38.0895 14.4182 37.8805 13.7402 37.8805C13.3622 37.8805 13.0052 37.9685 12.6702 38.1475L12.8462 36.6185H15.6742V35.4426H11.6893ZM27.0661 35.4426L26.6561 39.0585L27.7791 39.3355L27.9161 39.2085C28.124 39.0325 28.397 38.9445 28.732 38.9445C29.097 38.9445 29.379 39.0525 29.578 39.2675C29.777 39.4825 29.875 39.7905 29.875 40.1945C29.875 40.6145 29.79 40.9425 29.617 41.1735C29.445 41.4015 29.198 41.5155 28.879 41.5155C28.592 41.5155 28.361 41.4325 28.182 41.2695C28.006 41.1035 27.9021 40.8725 27.873 40.5755H26.4771C26.4901 40.9795 26.6021 41.3395 26.8121 41.6555C27.0271 41.9715 27.3191 42.2185 27.6881 42.3945C28.055 42.5665 28.455 42.6515 28.885 42.6515C29.377 42.6515 29.803 42.5525 30.164 42.3535C30.526 42.1525 30.802 41.8705 30.994 41.5095C31.19 41.1445 31.287 40.7325 31.287 40.2725C31.287 39.5175 31.095 38.9295 30.711 38.5095C30.327 38.0895 29.797 37.8805 29.119 37.8805C28.741 37.8805 28.384 37.9685 28.049 38.1475L28.225 36.6185H31.053V35.4426H27.0661ZM31.717 35.4426L34.053 39.9765V42.5545H35.543V39.9765L37.8769 35.4426H36.2749L34.795 38.6455L33.324 35.4426H31.717ZM40.1779 37.1715C39.5489 37.1715 39.0409 37.3305 38.6499 37.6455C38.2629 37.9585 38.0679 38.3485 38.0679 38.8175C38.0679 39.6225 38.6959 40.1555 39.9529 40.4195C40.3309 40.4975 40.6059 40.5875 40.7749 40.6885C40.9479 40.7865 41.0329 40.9225 41.0329 41.0955C41.0329 41.2615 40.9639 41.3955 40.8239 41.4995C40.6869 41.6005 40.4829 41.6515 40.2129 41.6515C39.9229 41.6515 39.6919 41.5845 39.5199 41.4505C39.3469 41.3175 39.2529 41.1255 39.2399 40.8745H37.9019C37.9019 41.1935 37.9999 41.4925 38.1949 41.7695C38.3909 42.0425 38.6599 42.2575 39.0019 42.4175C39.3469 42.5735 39.7409 42.6515 40.1839 42.6515C40.8379 42.6515 41.3719 42.5045 41.7849 42.2085C42.1989 41.9085 42.4059 41.5185 42.4059 41.0365C42.4059 40.3625 42.0329 39.8885 41.2869 39.6145C41.0459 39.5265 40.7499 39.4485 40.3979 39.3805C40.0469 39.3085 39.7959 39.2245 39.6459 39.1305C39.4999 39.0325 39.4259 38.9055 39.4259 38.7495C39.4259 38.5835 39.4909 38.4465 39.6209 38.3395C39.7509 38.2315 39.9359 38.1775 40.1739 38.1775C40.4509 38.1775 40.6549 38.2445 40.7849 38.3785C40.9149 38.5085 40.9799 38.6745 40.9799 38.8765H42.3929C42.3929 38.3715 42.1889 37.9615 41.7849 37.6455C41.3849 37.3305 40.8489 37.1715 40.1779 37.1715ZM16.8672 38.9405V40.0775H19.6172V38.9405H16.8672Z" fill="#333333"/>
</svg>

<?xml version="1.0" encoding="UTF-8" standalone="no"?>
<!-- Created with Inkscape (http://www.inkscape.org/) -->
<svg id="svg8" xmlns:rdf="http://www.w3.org/1999/02/22-rdf-syntax-ns#" xmlns="http://www.w3.org/2000/svg" height="48" viewBox="0 0 12.7 12.7" width="48" version="1.1" xmlns:cc="http://creativecommons.org/ns#" xmlns:dc="http://purl.org/dc/elements/1.1/">
 <title id="title4753">UIO-icon</title>
 <metadata id="metadata5">
  <rdf:RDF>
   <cc:Work rdf:about="">
    <dc:format>image/svg+xml</dc:format>
    <dc:type rdf:resource="http://purl.org/dc/dcmitype/StillImage"/>
    <dc:title>UIO-icon</dc:title>
    <dc:creator>
     <cc:Agent>
      <dc:title>Joaquín Urbano</dc:title>
     </cc:Agent>
    </dc:creator>
    <dc:rights>
     <cc:Agent>
      <dc:title>GPL</dc:title>
     </cc:Agent>
    </dc:rights>
   </cc:Work>
  </rdf:RDF>
 </metadata>
 <path id="rect973" d="m0 0v48h48v-48h-48zm24.318 4.5605c0.639 0.0008 1.253 0.077 1.854 0.1856 0.354 0.0598 0.704 0.1344 1.047 0.2246 0.142 0.0375 0.28 0.0861 0.42 0.1289 0.166 0.0508 0.333 0.0999 0.496 0.1582 0.141 0.0507 0.279 0.1077 0.418 0.1641 0.173 0.0705 0.344 0.1451 0.513 0.2246 0.118 0.0554 0.235 0.1121 0.35 0.1719 0.181 0.0939 0.358 0.1959 0.533 0.3007 0.103 0.0615 0.206 0.1203 0.307 0.1856 0.213 0.1381 0.419 0.2862 0.621 0.4414 0.054 0.0418 0.112 0.0781 0.166 0.1211 0.249 0.2001 0.487 0.4173 0.719 0.6445 0.07 0.0687 0.135 0.1437 0.203 0.2149 0.158 0.1646 0.313 0.3336 0.461 0.5117 0.085 0.102 0.166 0.208 0.248 0.3144 0.127 0.1668 0.25 0.3399 0.369 0.5176 0.075 0.1126 0.151 0.2248 0.223 0.3418 0.137 0.2227 0.266 0.4546 0.39 0.6929 0.038 0.074 0.081 0.142 0.117 0.217 0.163 0.33 0.312 0.675 0.448 1.035 0.028 0.074 0.049 0.154 0.076 0.229 0.102 0.285 0.196 0.577 0.281 0.881 0.038 0.136 0.073 0.276 0.108 0.416 0.064 0.262 0.123 0.53 0.175 0.805 0.029 0.15 0.056 0.302 0.08 0.457 0.047 0.292 0.085 0.593 0.118 0.9 0.015 0.146 0.032 0.29 0.045 0.439 0.036 0.455 0.063 0.92 0.068 1.405-0.255 8.702 2.706 10.919 1.996 13.16-2.128-1.261-4.122-1.762-6.467-1.959h-0.004c-0.122 0.09-0.236 0.19-0.365 0.271-2.305 1.444-4.372 2.828-6.043 2.823-2.44-0.076-3.666-1.096-6.437-2.842-0.129-0.081-0.239-0.182-0.358-0.274-0.001 0.001-0.002 0-0.004 0-1.52 0.116-2.888 0.354-4.234 0.832-0.269 0.096-0.536 0.201-0.805 0.317-0.537 0.232-1.075 0.506-1.623 0.83-0.71-2.241 2.25-4.458 1.994-13.16 0.255-9.8529 7.359-12.433 11.176-12.324v0.0015c0.014-0.0001 0.024-0.0005 0.037 0 0.029 0.0001 0.057 0.0036 0.086 0.0039 0.066-0.0014 0.131-0.0079 0.197-0.0079zm-8.763 7.5805l-0.008 9.488c-0.003 2.659 0.772 5.119 2.631 6.305 2.631 1.678 3.795 2.657 6.111 2.73 1.586 0.005 3.548-1.323 5.736-2.711 1.968-1.248 3.049-3.725 3.049-6.371-0.01-1.475-0.026-2.94-0.037-4.404-0.002-0.002-0.005-0.003-0.008-0.004-0.245-0.158-0.521-0.299-0.826-0.424-2.442-1.004-6.629-1.053-10.207-1.504-0.89-0.112-1.741-0.25-2.519-0.434-0.015-0.003-0.032-0.006-0.047-0.009h-0.002c-0.336-0.08-0.649-0.175-0.953-0.274-0.057-0.018-0.121-0.031-0.176-0.05-0.293-0.102-0.56-0.221-0.817-0.344-0.05-0.024-0.109-0.042-0.158-0.067-0.114-0.058-0.221-0.121-0.326-0.185-0.033-0.02-0.069-0.038-0.102-0.059-0.091-0.058-0.174-0.122-0.257-0.185-0.039-0.03-0.082-0.058-0.119-0.088-0.116-0.095-0.224-0.194-0.323-0.299-0.079-0.084-0.149-0.173-0.217-0.264-0.018-0.025-0.04-0.048-0.058-0.074-0.081-0.117-0.152-0.239-0.213-0.367l-0.002-0.002c-0.061-0.129-0.112-0.263-0.152-0.404zm4.925 4.882c0.553 0.001 1 0.448 1 1 0 0.553-0.447 1-1 1-0.552 0-0.999-0.447-1-1 0.001-0.552 0.448-0.999 1-1zm7.51 0c0.552 0.001 1 0.448 1 1 0 0.553-0.448 1-1 1s-1-0.447-1-1c0-0.552 0.448-0.999 1-1zm-3.818 4.618c0.021-0.001 0.043-0.001 0.064 0 0.497 0 0.899 0.083 0.901 0.185 0.004 0.103-0.4 0.186-0.901 0.186-0.5 0-0.906-0.083-0.902-0.186 0-0.097 0.366-0.179 0.838-0.185zm-0.233 4.005h0.223c1.738 0 3.15 0.052 3.16 0.116 0.02 0.064-1.401 0.117-3.16 0.117-1.758 0-3.178-0.053-3.158-0.117 0.005-0.061 1.285-0.111 2.935-0.116zm-0.513 5.469c0.272 0.039 0.558 0.063 0.863 0.073-0.009 0-0.02 0.003-0.029 0.003-0.293-0.009-0.569-0.035-0.834-0.076zm-19.426 2.901h39.998v10h-39.998v-10zm19.031 1.33c-0.478 0-0.907 0.101-1.285 0.306-0.378 0.202-0.67 0.482-0.879 0.84-0.205 0.358-0.306 0.755-0.306 1.188h1.416c0-0.359 0.091-0.645 0.273-0.864 0.186-0.221 0.439-0.334 0.758-0.334 0.296 0 0.524 0.093 0.683 0.276 0.16 0.179 0.241 0.426 0.241 0.742 0 0.231-0.078 0.475-0.231 0.732-0.15 0.258-0.383 0.56-0.699 0.905l-2.301 2.451v0.967h4.875v-1.137h-3.056l1.617-1.705c0.443-0.485 0.755-0.912 0.937-1.275 0.183-0.365 0.274-0.723 0.274-1.075 0-0.641-0.205-1.138-0.612-1.49-0.404-0.352-0.972-0.527-1.705-0.527zm-14.429 0.088l-2.9454 1.054v1.149l1.6836-0.524v5.442h1.4122v-7.121h-0.1504zm3.0874 0.009l-0.412 3.616 1.125 0.277 0.137-0.127c0.208-0.176 0.479-0.264 0.815-0.264 0.364 0 0.647 0.108 0.845 0.323 0.199 0.215 0.299 0.523 0.299 0.927 0 0.42-0.087 0.748-0.26 0.979-0.172 0.228-0.419 0.342-0.738 0.342-0.287 0-0.518-0.083-0.697-0.246-0.176-0.166-0.28-0.397-0.309-0.694h-1.396c0.013 0.404 0.124 0.764 0.336 1.08 0.215 0.316 0.507 0.563 0.875 0.739 0.368 0.172 0.767 0.257 1.197 0.257 0.492 0 0.918-0.099 1.279-0.298 0.362-0.201 0.638-0.483 0.83-0.844 0.196-0.365 0.295-0.777 0.295-1.237 0-0.755-0.194-1.343-0.578-1.763s-0.914-0.629-1.592-0.629c-0.378 0-0.735 0.088-1.07 0.267l0.176-1.529h2.828v-1.176h-3.985zm15.377 0l-0.41 3.616 1.123 0.277 0.137-0.127c0.208-0.176 0.481-0.264 0.816-0.264 0.365 0 0.647 0.108 0.846 0.323s0.297 0.523 0.297 0.927c0 0.42-0.085 0.748-0.258 0.979-0.172 0.228-0.419 0.342-0.738 0.342-0.287 0-0.518-0.083-0.697-0.246-0.176-0.166-0.28-0.397-0.309-0.694h-1.396c0.013 0.404 0.125 0.764 0.335 1.08 0.215 0.316 0.507 0.563 0.876 0.739 0.367 0.172 0.767 0.257 1.197 0.257 0.492 0 0.918-0.099 1.279-0.298 0.362-0.201 0.638-0.483 0.83-0.844 0.196-0.365 0.293-0.777 0.293-1.237 0-0.755-0.192-1.343-0.576-1.763s-0.914-0.629-1.592-0.629c-0.378 0-0.735 0.088-1.07 0.267l0.176-1.529h2.828v-1.176h-3.987zm4.651 0l2.336 4.534v2.578h1.49v-2.578l2.334-4.534h-1.602l-1.48 3.203-1.471-3.203h-1.607zm8.461 1.729c-0.629 0-1.137 0.159-1.528 0.474-0.387 0.313-0.582 0.703-0.582 1.172 0 0.805 0.628 1.338 1.885 1.602 0.378 0.078 0.653 0.168 0.822 0.269 0.173 0.098 0.258 0.234 0.258 0.407 0 0.166-0.069 0.3-0.209 0.404-0.137 0.101-0.341 0.152-0.611 0.152-0.29 0-0.521-0.067-0.693-0.201-0.173-0.133-0.267-0.325-0.28-0.576h-1.338c0 0.319 0.098 0.618 0.293 0.895 0.196 0.273 0.465 0.488 0.807 0.648 0.345 0.156 0.739 0.234 1.182 0.234 0.654 0 1.188-0.147 1.601-0.443 0.414-0.3 0.621-0.69 0.621-1.172 0-0.674-0.373-1.148-1.119-1.422-0.241-0.088-0.537-0.166-0.889-0.234-0.351-0.072-0.602-0.156-0.752-0.25-0.146-0.098-0.22-0.225-0.22-0.381 0-0.166 0.065-0.303 0.195-0.41 0.13-0.108 0.315-0.162 0.553-0.162 0.277 0 0.481 0.067 0.611 0.201 0.13 0.13 0.195 0.296 0.195 0.498h1.413c0-0.505-0.204-0.915-0.608-1.231-0.4-0.315-0.936-0.474-1.607-0.474zm-23.311 1.769v1.137h2.75v-1.137h-2.75z" fill-rule="evenodd" transform="scale(.26458)" fill="#333"/>
</svg>
